X:1
T:Mal et soucy
T:Mal et soucy
T:Cornelius Canis
C:Cornelius Canis
%%score [ 1 [ 2 3 ] 4 ]
L:1/8
Q:1/4=100
M:2/2
K:C
V:1 treble nm="Superius" snm="S"
V:2 treble-8 nm="Tenor 1" snm="T 1"
V:3 treble-8 nm="Tenor 2" snm="T 2"
V:4 bass nm="Bassus" snm="B"
V:1
 z8 | z8 | A8 | G4 D4 | E4 z2 E2 | G4 F4 | E2 E2 G3 A | Bc B3 A A2- | A2 G2 A2 D2 | F4 E4 | %10
w: ||Mal|et sou-|scy, pai-|n'et dou-|leur, pai- n'et _|_ _ _ _ _|* dou- leur, mal|et sou-|
 D4 C2 A,2 | C3 D EFGF | ED D4 C2 | D4 z4 | z8 | z8 | A4 c4 | c2 c2 B4 | A6 GF | E2 F2 D4 | C8 | %21
w: * scy, pai-|n'et _ _ _ _ _|_ _ _ dou-|leur,|||dueil, des-|es- pe- ran-||ce mor- tel-|le,|
 z4 z2 E2 | F4 G4 | A2 A2 G2 F2 | E4 D4 | z8 | z2 D4 C2 | F4 E2 E2 | C2 D2 E4 | A,4 z4 | z2 A4 G2 | %31
w: trem-|bler, pal-|lir, mu- er _|cou- leur,||fie- vre|blan- che con-|ti- nu- el-|le,|fie- vre|
 c4 B2 B2 | G2 A2 B4 | E2 A4 G2 | A4 z4 | z8 | z4 B4 | c4 B2 G2 | A2 B2 E2 A2 | G2 A3 G G2- | %40
w: blan- che con-|ti- nu- el-||le,||sont|les biens que|j'ay de la bel-||
 G2 F2 G4- | G4 z4 | z2 G2 G2 A2 | G3 F E2 F2 | G2 A4 G2 | A4 z2 D2 | F4 G4 | F3 G A2 _B2 | %48
w: * * le|_|pie- ça souf-|fert, _ _ las,|dou- * lou-|reulx, la|mort, pour-|quoy ne me prent|
 BA A4 G2 | A4 z4 | z2 E2 G2 A2 | G4 z2 C2 | E2 F2 E2 D2 | E6 D2 | E8 | z8 | z2 d2 c3 B | %57
w: _ _ el- *|le,|La mort, pour-|quoy ne|me prent el- *||le,||quant a- mour|
 A2 G2 F2 E2 | D6 C2 | D4 A4 | z2 A2 G2 F2 | E2 D2 C2 E2- | ED D4 C2 | D8 |] %64
w: m'est tant ri- *||gou- reulx,|quant a- mour|m'est tant ri- *|* * * gou-|reulx?|
V:2
 d8 | c4 G4 | A4 z2 A2 | c4 B4 | A2 A2 c4 | B4 A2 A2 | c3 d ef e2- | e2 d3 c A2 | B4 A4- | A4 c4 | %10
w: Mal|et sou-|scy, pai-|n'et dou-|leur, pai- n'et|dou- leur, pai-|n'et _ _ _ _|_ _ _ _|dou- leur,|_ pai-|
 B4 A2 c2- | cB A2 G3 A | _B2 G2 A4 | F2 D2 d4 | c3 B A4 | G4 z2 d2 | f4 f2 f2 | e4 d4- | %18
w: n'et _ _|_ _ _ _ _|* * dou-|leur, dueil, des-|es- pe- ran-|ce, dueil,|des- es- pe-|ran- *|
 d2 cB A2 B2 | c2 A4 G2 | A4 z2 A2 | B4 c4 | d2 d2 c2 B2 | AB cd e2 d2- | d2 c2 d4 |"^b" G2 A4 B2 | %26
w: |ce mor- tel-|le, trem-|bler, pal-|lir, mu- er _|cou- * * * * *|* * leur,|pal- lir mu-|
 A2 G2 A4- | A8- | A4 z4 | z2 A4 G2 | c2 c2 B4 | G2 A2 B4 | c4 B2 e2 | c2 d2 B4 | A2 c2 e4 | %35
w: er cou- leur,|_||fie- vre|blan- che con-|ti- nu- el-|le, con- ti-|nu- el- *|le, sont les|
 d2 B2 c2 d2 | G2 F2 D4 | E2 e2 g4 | f2 g4 f2 | e4 z4 | z2 d2 d2 e2 | d3 c B2 c2 | d2 e4 d2 | %43
w: biens _ que j'ay|de la bel-|le, que j'ay|de la bel-|le,|pie- ça souf-|fert, _ _ las,|dou- * lou-|
 e4 z4 | z2 c2 c2 d2 | c3 B A2 B2 | c2 d4 c2 | d4 z4 | A4 c2 d2 | c3 d e2 f2- | fe e4 d2 | e8 | %52
w: reulx,|pie- ça souf-|fert, _ _ las,|dou- * lou-|reulx,|la mort, pour-|quoy ne me prent|_ _ el- *|le,|
 z2 c2 c2 B2 | c3 B/A/ G2 A2- | A2 G2 A4 | z2 d2 c2 B2 | A2 G2 A2 A2 | F2 _B2 A2 G2 | %58
w: ne- me prent|el- * * * *|* * le|quant a- mour|m'est tant ri- gou-|reulx, quant a- mour|
"^b" F2 B2 A2 G2 | A8 | z2 f2 e2 d2 |"^b" c2 B2 A4- | A2 G2 A4 | A8 |] %64
w: m'est tant ri- gou-|reulx,|quant a- mour|m'est tant ri-|* * gou-|reulx?|
V:3
 z8 | z8 | z8 | z8 | A8 | G4 D4 | E4 z2 E2 | G4 F4 | E4 F3 G | A2 F2 G4- | G4 E4 | F4 E3 F | %12
w: ||||Mal|et sou-|scy, pai-|n'et dou-||* * leur,|_ pai-|n'et _ _|
 GFED E4 | D4 z4 | A4 c4 | c2 c2 B4 | A8 | E4 G4 | F2 D2 F3 G | A4 z2 D2 | E4 F4 | G2 G2 F2 E2 | %22
w: _ _ _ _ dou-|leur,|dueil, des-|es- pe- ran-|ce|mor- *|tel- * * *|le, trem-|bler, pal-|lir, mu- er cou-|
 D2 D2 E2 G2 | FG AB c2 d2 | A4 z2 D2 | E2 E2 F2 F2 | E2 D2 E4 | D4 z4 | z2 A4 G2 | c4 B2 B2 | %30
w: leur, trem- bler, pal-|lir, _ mu- * er cou-|leur, trem-|bler, pal- lir, mu-|er _ cou-|leur,|fie- vre|blan- che con-|
 A3 G E3 D | E2 F2 D2 E2- | E2 F2 G2 E2 | A2 F2 E4 | z2 A2 c4 | B2 G2 A2 B2 | E2 A4 G2 | A2 c2 e4 | %38
w: ti- nu- el- *|||* * le,|sont les|biens que j'ay de|la bel- *|le, que j'ay|
 d2 B2 c4 | B2 c3 B AG | A4 G4- | G4 z4 | z8 | z2 c2 c2 d2 | c3 B A2 B2 | A4 z4 | z8 | %47
w: de la bel-||* le,|_||pie- ça souf-|fert, las, dou- lou-|reulx,||
 z2 D2 F2 G2 | F3 G A2 _B2 | A4 G2 F2 | G2 c4 BA | B4 z2 E2 | G2 A2 G2 F2 | G2 A2 c2 BA | %54
w: la mort, pour-|quoy ne me prent|el- * *||le, ne|me prent el- *||
 B4 A2 c2 | B2 A2 G2 F2 | E2 D2 E4 |"^b" z2 d2 c2 B2 | A2 G2 F2 E2 | D3 E F2 E2 | DC c2 B2 A2 | %61
w: * le quant|a- mour m'est tant|ri- gou- reulx,|quant a- mour|m'est tant ri- *|* * * gou-|reulx, _ quant a- mour|
 G2 F2 E2 C2 | D4 E4 | D8 |] %64
w: m'est tant ri- *|* gou-|reulx?|
V:4
 z8 | z8 | z8 | z8 | z8 | z8 | z8 | z8 | z4 D,4- | D,4 C,4 | G,,4 A,,4 | z2 A,,2 C,2 _B,,A,, | %12
w: ||||||||Mal|_ et|sou- scy,|pai- n'et _ _|
"^b" G,,2 B,,2 A,,4 | z4 D,4 | F,4 F,2 F,2 | E,4 D,4- | D,2 C,B,, A,,4 | C,4 G,,4 | D,8 | %19
w: _ dou- leur,|dueil,|des- es- pe-|ran- *|* * * ce|mor- tel-||
 C,2 D,2 B,,4 | A,,8 | z8 | z8 | z8 | A,,4 _B,,4 | C,4 D,2 D,2 | C,2 B,,2 A,,4 | z2 D,4 C,2 | %28
w: |le,||||trem- bler,|pal- lir, mu-|er cou- leur,|fie- vre|
 F,4 E,2 E,2 | C,3 D, E,4 | A,,4 z4 | z8 | z8 | z4 z2 E,2 | F,4 E,2 C,2 | D,2 E,2 A,,2 G,,2 | %36
w: blan- che con-|ti- nu- el-|le,|||sont|les biens que|j'ay de la bel-|
 C,2 D,2 B,,4 | A,,4 z2 E,2 | F,2 E,2 C,2 D,2 | E,2 C,2 E,4 | D,4 G,,4 | z2 G,2 G,2 A,2 | %42
w: |le, que|j'ay de la bel-||* le,|pie- ça souf-|
 G,3 F, E,2 F,2 | E,4 z4 | z8 | F,4 F,2 G,2 | F,2 E,D, E,2 E,2 | D,4 z4 | z8 | A,,4 C,2 D,2 | %50
w: fert, las, dou- lou-|reulx,||pie- ça souf-|fert, las, _ dou- lou-|reulx,||la mort, pour-|
 C,3 D, E,2 F,2 | E,4 A,,4 | z2 A,,2 C,2 D,2 | C,3 D, E,2 F,2 | E,4 A,,2 A,2 | G,2 F,2 E,2 D,2 | %56
w: quoy ne me prent|el- le,|ne me prent|el- * * *|* le quant|a- mour m'est tant|
 C,2 B,,2 A,,4 | z8 | z4 z2 G,2 | F,3 E, D,2 C,2 | B,,2 A,,2 E,2 F,2 | C,2 D,2 A,,2 A,,2 | %62
w: ri- gou- reulx,||quant|a- mour m'est tant|ri- gou- reulx, quant|a- mour m'est tant|
 _B,,4 A,,4 | D,8 |] %64
w: ri- gou-|reulx?|

